!!!OTL: GUETE MORGEN BUCKLIGE GRET
!!!ARE: Europa, Mitteleuropa, Deutschland; France, Elsass
!!!SCT: E0004A
!!!YEM: Copyright 1995, estate of Helmut Schaffrath.
**kern
*ICvox
*Ivox
*M2/4
*k[b-]
*F:
=1
{8.cc
16dd
8cc
8b-
=2
8a
16a
16a
8a}
{8g
=3
8.a
16f
8f
8a
=4
4a
8g}
{8g
=5
8.a
16g
8a
8b-
=6
8cc
8dd
8cc}
{8g
=7
8.a
16f
8a
8g
=8
4g
8f
8r}
==
!!!AGN: Sage, Maerchen -, Zauber - Lied, Ballade ?
!!!ONB: ESAC (Essen Associative Code) Database: ERK1
!!!AMT: simple duple
!!!AIN: vox
!!!EED: Helmut Schaffrath
!!!EEV: 1.0
*-
